Communication/documents.svg

<svg xmlns="http://www.w3.org/2000/svg" viewBox="0 0 24 24" style="enable-background:new 0 0 24 24" xml:space="preserve"><path d="M21.8 6.2 16.2.5c-.1-.1-.3-.3-.6-.4-.2 0-.4-.1-.6-.1h-4.8c-.8 0-1.5.3-2 .8s-.8 1.2-.8 2V5h-3c-.8 0-1.4.3-2 .8-.5.5-.8 1.1-.8 1.9v13.6c0 1.5 1.2 2.7 2.7 2.7h9.6c1.5 0 2.7-1.3 2.7-2.7V19h3.1c1.5 0 2.7-1.3 2.7-2.7V7.5c-.1-.5-.3-.9-.6-1.3zm-.7.7c.1 0 .1 0 0 0l-4.8.1c-.2 0-.5-.1-.7-.3-.2-.2-.3-.4-.3-.7V1s.1 0 .2.1l5.6 5.8zM13.9 23H4.3c-1 0-1.7-.8-1.7-1.8V7.7c0-.5.2-.9.5-1.3.3-.3.8-.5 1.3-.5h4.2V11c0 .5.2 1 .6 1.3.3.3.8.6 1.3.6h5.1v8.4c0 1-.8 1.7-1.7 1.7zM9.6 6s.1 0 .2.1l5.6 5.7v.1h-4.9c-.2 0-.5-.1-.7-.3s-.2-.4-.2-.6V6zm10 12.1h-3.1v-5.7c0-.5-.2-.9-.5-1.3l-5.6-5.7c-.1-.1-.3-.3-.6-.4-.1 0-.4-.1-.6-.1h-.8V2.8c0-.5.2-.9.5-1.3.3-.3.8-.5 1.2-.5h4.2v5c0 .5.2 1 .6 1.3.4.4.9.7 1.4.7h5.1v8.4c0 .9-.8 1.7-1.8 1.7z" style="fill:#263238"/></svg>

<?xml version="1.0" encoding="utf-8"?>
<!-- Generator: Adobe Illustrator 25.4.1, SVG Export Plug-In . SVG Version: 6.00 Build 0)  -->
<svg version="1.1" id="Capa_1" xmlns="http://www.w3.org/2000/svg" xmlns:xlink="http://www.w3.org/1999/xlink" x="0px" y="0px"
	 viewBox="0 0 24 24" style="enable-background:new 0 0 24 24;" xml:space="preserve">
<style type="text/css">
	.st0{fill:#263238;}
</style>
<path class="st0" d="M21.8,6.2l-5.6-5.7c-0.1-0.1-0.3-0.3-0.6-0.4C15.4,0.1,15.2,0,15,0h-4.8C9.4,0,8.7,0.3,8.2,0.8S7.4,2,7.4,2.8V5
	h-3C3.6,5,3,5.3,2.4,5.8C1.9,6.3,1.6,6.9,1.6,7.7v13.6c0,1.5,1.2,2.7,2.7,2.7h9.6c1.5,0,2.7-1.3,2.7-2.7V19h3.1
	c1.5,0,2.7-1.3,2.7-2.7V7.5C22.3,7,22.1,6.6,21.8,6.2z M21.1,6.9C21.2,6.9,21.2,6.9,21.1,6.9L16.3,7c-0.2,0-0.5-0.1-0.7-0.3
	c-0.2-0.2-0.3-0.4-0.3-0.7v-5c0,0,0.1,0,0.2,0.1L21.1,6.9z M13.9,23H4.3c-1,0-1.7-0.8-1.7-1.8V7.7c0-0.5,0.2-0.9,0.5-1.3
	c0.3-0.3,0.8-0.5,1.3-0.5h4.2v5.1c0,0.5,0.2,1,0.6,1.3c0.3,0.3,0.8,0.6,1.3,0.6h5.1v8.4C15.6,22.3,14.8,23,13.9,23z M9.6,6
	c0,0,0.1,0,0.2,0.1l5.6,5.7c0,0,0,0,0,0.1h-4.9c-0.2,0-0.5-0.1-0.7-0.3S9.6,11.2,9.6,11V6z M19.6,18.1h-3.1v-5.7l0,0l0,0l0,0
	c0-0.5-0.2-0.9-0.5-1.3l-5.6-5.7c-0.1-0.1-0.3-0.3-0.6-0.4C9.7,5,9.4,4.9,9.2,4.9H8.4V2.8c0-0.5,0.2-0.9,0.5-1.3
	C9.2,1.2,9.7,1,10.1,1h4.2V6c0,0.5,0.2,1,0.6,1.3C15.3,7.7,15.8,8,16.3,8h5.1v8.4C21.4,17.3,20.6,18.1,19.6,18.1z"/>
</svg>
